T: Bill Black's
M: 4/4
L: 1/8
K: Gmaj
BGBd gdcB | Acbg fedc | BGBd gdBG | (3ABG (3FGE D2 dc |BGBd gdcB | Acbg fedc | (3BdB GB (3AcA FA | G2 G2 G2 :|dcBA GBdg | e2 c2 c2 cd | edcB Acag | f2 dd d2 ef |(3ggg ge (3fff fd | efge dcBA | (3BdB GB (3AcA FA | G2 G2 G2 :|
